!!!OTL: Folk song Number 29
!!!CNT: Chinese
**kern
*k[f#]
*M2/4
=1
(8dd
16ee
16dd)
(8b
8a)
=2
(8dd
16ee
16dd)
(8b
8a)
=3
(8b
4dd)
8g
=4
(8a
16b
16dd
4a)
=5
(8b
4dd)
8g
=6
(8a
16b
16dd
4a)
=7
8b
(16b
16a)
8b
(16b
16a)
=8
(16g
16a)
(16b
16dd)
4a
=9
8a
8e
(16g
16a
16g
16e)
=10
2d
=11
(16b
4..a)
=12
8a
8e
(16g
16a
16g
16e)
=13
2d
==
*-
!!!PPR: Yin yueh ch'u pan she
!!!OPR: Chung-kuo min ko Chung-kuo yin yueh yen chiu so pien [Chinese folk songs]
!!!OCL: Chung-kuo yin yueh yen chiu so
!!!PPP: Beijing, China
!!!PDT: 1959///
!!!SML: Edward Johnson Library, University of Toronto M1804.C4694C5
!!!PPG: p.22
!!!ENC: David Huron
!!!EMD: Paul von Hippel updated this file in the following ways (1998/9/29/):
!!!EMD:  (1) changed the representation of slurs from curly braces to parentheses 
!!!EMD:  (2) changed freeform comments into reference records and tandem interpretations
!!!EMD:  (3) corrected the author, title, author, and call number of the printed source 
!!!EEV: Version 2.0
